static/images/pieces/shogi/ctp3d/0KY.svg

<svg viewBox="0 0 60 60" xmlns="http://www.w3.org/2000/svg" xmlns:xlink="http://www.w3.org/1999/xlink"><filter id="a" color-interpolation-filters="sRGB"><feFlood flood-opacity=".498" result="flood"/><feComposite in="flood" in2="SourceGraphic" operator="in" result="composite1"/><feGaussianBlur in="composite1" result="blur" stdDeviation="1"/><feOffset dx="5" dy="3" result="offset"/><feComposite in="SourceGraphic" in2="offset" result="composite2"/></filter><g opacity=".99"><g filter="url(#a)" transform="matrix(.6 0 0 .6 -286.1 3.657)"><path d="m526.835 8-17.83 5.92-9.336 60.222h54.331l-9.335-60.223z" fill="#fee572"/><path d="m499.67 74.142v5.668h54.33v-5.669z" fill="#c3983c" fill-opacity=".992"/></g><g stroke="#000"><path d="m515.823 67.786 16.979-16.978 1.546 1.546-16.978 16.979z" stroke-width=".769" transform="matrix(.63112 0 0 .61678 -301.39 1.632)"/><g stroke-width="4.938" transform="matrix(.09203 0 0 .08994 -4.94 -95.758)"><path d="m372.14 1585.471v-260.651h15v260.652z" stroke-width="5.276"/><g fill="none"><path d="m373.444 1325.142-13.45-9.477 2.65-110.432 16.688-28.57 17.542 28.57 2.373 110.432-13.382 9.477z" stroke-width="7.914"/><path d="m379.551 1181.017v105.099l17.91 15.182m-17.91-15.182-17.687 15.182" stroke-width="5.935"/></g></g><path d="m19.295 41.675h14.585v1.329h-14.585z" stroke-width=".467" transform="matrix(1.03911 0 0 1.0155 2.373 -4.313)"/></g><path d="m30 30.149a8.732 8.534 0 0 0 -8.733 8.533 8.732 8.534 0 0 0 8.733 8.534 8.732 8.534 0 0 0 8.733-8.534 8.732 8.534 0 0 0 -8.733-8.533zm0 1.86a6.827 6.672 0 0 1 6.826 6.673 6.827 6.672 0 0 1 -6.826 6.672 6.827 6.672 0 0 1 -6.828-6.672 6.827 6.672 0 0 1 6.828-6.673z"/><path d="m517.37 50.808 16.978 16.978-1.546 1.547-16.979-16.979z" stroke="#000" stroke-width=".769" transform="matrix(.63112 0 0 .61678 -301.39 1.632)"/></g></svg>

<svg xmlns="http://www.w3.org/2000/svg" viewBox="0 0 60 60"><defs><filter id="a" color-interpolation-filters="sRGB"><feFlood flood-opacity=".498" flood-color="#000" result="flood"/><feComposite in="flood" in2="SourceGraphic" operator="in" result="composite1"/><feGaussianBlur in="composite1" stdDeviation="1" result="blur"/><feOffset dx="5" dy="3" result="offset"/><feComposite in="SourceGraphic" in2="offset" result="composite2"/></filter></defs><g opacity=".99"><g transform="matrix(.6 0 0 .6 -286.1 3.657)" filter="url(#a)"><path d="m526.835 8-17.83 5.92-9.336 60.222H554l-9.335-60.223z" fill="#fee572"/><path d="M499.67 74.142v5.668H554v-5.669z" fill="#c3983c" fill-opacity=".992"/></g><path d="m515.823 67.786 16.979-16.978 1.546 1.546-16.978 16.979z" stroke="#000" stroke-width=".769" transform="matrix(.63112 0 0 .61678 -301.39 1.632)"/><g stroke="#000" stroke-width="4.938"><path d="M372.14 1585.471V1324.82h15v260.652z" stroke-width="5.276" transform="matrix(.09203 0 0 .08994 -4.94 -95.758)"/><g fill="none"><path d="m373.444 1325.142-13.45-9.477 2.65-110.432 16.688-28.57 17.542 28.57 2.373 110.432-13.382 9.477z" stroke-width="7.914" transform="matrix(.09203 0 0 .08994 -4.94 -95.758)"/><path d="M379.551 1181.017v105.099l17.91 15.182m-17.91-15.182-17.687 15.182" stroke-width="5.935" transform="matrix(.09203 0 0 .08994 -4.94 -95.758)"/></g></g><path d="M19.295 41.675H33.88v1.329H19.295z" stroke="#000" stroke-width=".467" transform="matrix(1.03911 0 0 1.0155 2.373 -4.313)"/><path d="M30 30.149a8.732 8.534 0 0 0-8.733 8.533A8.732 8.534 0 0 0 30 47.216a8.732 8.534 0 0 0 8.733-8.534A8.732 8.534 0 0 0 30 30.149zm0 1.86a6.827 6.672 0 0 1 6.826 6.673A6.827 6.672 0 0 1 30 45.354a6.827 6.672 0 0 1-6.828-6.672A6.827 6.672 0 0 1 30 32.009z"/><path d="m517.37 50.808 16.978 16.978-1.546 1.547-16.979-16.979z" stroke="#000" stroke-width=".769" transform="matrix(.63112 0 0 .61678 -301.39 1.632)"/></g></svg>
